X:181
T:The Odd Couple
C:
N:Gregory J. Thomas
L:1/8
Q:1/4=120
M:4/4
K:G
z8 | z8 | z8 | z7/1z3/8B,/z/8 | EB BA B4 | z2 AG A2 GF | G4 E4 | z7/1z/E/ | Ae ed e4 | 
z2 dc d2 cB | c4 A4 | z8 | z^A B3G =AE | G2 zA z4 | z^A B3G =AB | d2 dB G2 E2 | 
z^A B3G (3=ABd | e2 ed BA G2 | A8 | z7/1z/B,/ | EB BA B4 | z2 AG A2 GF | G4 E4 | 
z7/1z/E/ | Ae ed e4 | z2 dc d2 cB | c4 A4 | z8 | z^A B3G =AE | G2 zA z4 | z3B zG (3ABd | 
e2 d2 BA GE | G4 zE GE | G4 zE GE | G4 zE FG | AG FE DC B,^A, | A,3D {A,}B,{A,}B, zG, | 
A,2 D2 B,2 z3/2B,/ | EF GA {^A}B{A}B2=A/G/ | (3AGF (3EDE (3FGA B3/2d/ | c3B A3/2(3G (3Ace | 
b2 ^a=a z3b | c'b ag ag =f/^f/d | BA dA =f^f a2 | z2 =fa gf dB | dc BG E4 | FA/F/ =F^F GF =F^F | 
{^A}B{A}B z4 zB/d/ | c6 Bd | c/d/c/B/ AG ED B,D | F7/1G/D/ | F7/1z/B,/ | EF GB {^d}e3/2(3B (3GEB, | 
EF GB gf3 | z3^c (3dc z2 | z2 ^AB A=A GF | E3C/B,/ A,B, CD | {^D}E2 AF z4 | z^D EG Bd Bc | 
Ae b^a =a2 b2 | zd' zd g2 ed | (3^A=AG AE G2 AG | ^A/B3/4Gz/4=A3/2 _B/=B3/4Gz/4A3/2 | 
{A}B{A}B z4 zG/B/ | dc BA GF ED | CD EF d^c d^d | e=f ^fg f=f ed | cB AG FA FB, | 
D2 E2 F2 G2 | {A}B{A}B zA/G/ F2 G2 | [f6A6] ge | z7/1[bd] | z6 c'a | z3d fg/f/ ed | 
eA Bc AB cB | AG F=F ED CD | A,B, G,G z3A, | A,B, G,G z3G, | A,/^A,/=A,/G,/ A,_B, =B,D EF | 
G2 AG {A}B{A}B3 | z[dA] zc zB AG | FG FE DB, DE | F6 G2 | B7/1B, | EB BA B4 | 
z2 {B}AG A2 GF | G4 E4 | z7/1z/E/ | Ae ed e4 | z2 dc d2 cB | c4 A4 | z8 | z^A B3G =AE | 
G2 zA z4 | z3B zG (3ABd | e2 d2 BA GE | G4 zE GE | G4 zz3/8E/z/8 GE | G2 DD GG ^AA | 
dd GG ^Az/4B3/4 G2 | EB BA B4 | zE GE G2 GE | G2 DD GG ^AA | dd GG ^Az/4B3/4 G2 | 
EB BA B4 | zE GE G2 GE | G8 | 


